!!! OTL: Berkowitz425
!!! Chapter: 1
!!! Section: IV
!!! Page: 106
!!! Mode: 
!!! Encoder: DJB
**kern
*staff1
*I"Piano
=1-
*clefG2
*k[b-e-]
*B-:
*M6/8
4b-\
8c/
4g/
8A/
=2
4B-/
8d/
4c/
8r
=3
4c/
8b-\
8a\L
8f\
8ee-\J
=4
4dd\
16cc#\LL
16dd\JJ
4b-\
8r
=5
4d/
8cc\
4b-\
8d/
=6
4c/
8b-\
8a/L
8f#/
8g/J
=7
4b-\
8c/
4g/
8A/
=8
8f/L
8d/
8c/J
4.B-/
==
*-
